X:1
T:Title
%%score { ( 1 4 6 ) | ( 2 3 5 ) }
L:1/8
M:4/4
K:Eb
V:1 bass nm="Grand Piano"
V:4 bass 
V:6 bass 
V:2 treble 
V:3 treble 
V:5 treble 
V:1
 z4 z[Q:1/4=100] B,,E,F, | BBBB =AAAA | BBBB BB=A_A | BBBB BBBB | AAAA AFFG | %5
 [DA]2 [DG]2 [DA]2 [DB]2 | [DAd]4- [DAd][Ad][EAc][ce] | [DBd]2 [DAc]2 [DGB]2 [FA]2 | %8
 .E2 z2 z4[K:bass] | BBBB =AAAA | BBBB BB=A_A | BB[GB]B BBBB | AAAA Ac=Bc | %13
 [FAd]2 [Fc]2 [CFA]2 [CF]2 | [Ec]2 [EB]2- [EB][EG][E_G][E=G] | [DB]2 [DA]2 [DG]2 [A,DF]2 | %16
[M:3/4] [G,B,E]6[K:bass] |[M:1/4] E2 |[M:4/4][K:treble] c6 z2 | A6[K:bass][K:treble] z2 | %20
 [A,_DF]2 [F_d]2 [Ed]2 [Ec]2 | [_DB]6 [D=A]>B | c2 B2 G2 F2 | [_DF]>=D z2[K:bass] z[K:treble] AGA | %24
 [DB]2 [B,DF]2 [DG]2 [B,DA]2 | [Ec]2 B2 G>E D>E | c6 z2 | A6[K:bass][K:treble] z2 | [_Ge]6 z2 | %29
 [F_d]6 z2 | [FB]2 [FA]2 [EG]2 [_DF]2 | [CE]2 [Ec]4 [D=B]>c | [Ge]2 [F_d]2 [Ec]2 [_DB]2 | %33
[M:3/4] [CA]6 |[M:1/4] B>B |[M:4/4] B6 z2 | B6 z2 | B4 B4 | %38
[M:11/16] B/-B/-B/-B/-B/-B/-B/-B-<B[Q:1/4=99][Q:1/4=97][Q:1/4=96][Q:1/4=94][Q:1/4=93][Q:1/4=91][Q:1/4=90][Q:1/4=88][Q:1/4=87][Q:1/4=85][Q:1/4=84][Q:1/4=82][Q:1/4=81][Q:1/4=79][Q:1/4=78][Q:1/4=76] | %39
[M:3/8][K:bass][Q:1/4=100] B,,E,F, |[M:4/4][K:treble] BBBB =AAAA | BBBB BB=A_A | BBBB BBBB | %43
 AAAA AFFG | [DA]2 [DG]2 [DA]2 [DB]2 | [DAd]4- [DAd][Ad][EAc][ce] | [DBd]2 [DAc]2 [DGB]2 [FA]2 | %47
 G6[K:bass] z2 | BBBB =AAAA | BBBB BB=A_A | BB[GB]B BBBB | AAAA Ac=Bc | [FAd]2 [Fc]2 [CFA]2 [CF]2 | %53
 [Ec]2 [EB]2- [EB][EG][E_G][E=G] | [DB]2 [DA]2 [DG]2 [A,DF]2 |[M:7/4][K:bass] [G,B,E]6 z2 z2 z4 |] %56
V:2
 z8 | [EG][EG][EG][EG] [E_G][EG][EG][EG] | [EG][EG][EG][EG] [EG][B,EG][CE_G][DF] | %3
 [EG][EG][EG][EG] [C=E][CE][CE][CE] | [CF][CF][CF][CF] [CF]DDD | B,,F,B,F, B,,F,B,F, | %6
 B,,F,B,F, z[K:treble] D z A | z4 B,4- | B,[K:treble] z z2 z4 | %9
 [EG][EG][EG][EG] [E_G][EG][EG][EG] | [EG][EG][EG][EG] [EG][B,EG][CE_G][DF] | %11
 GG z G [=EG][EG][CE][CE] | [CF][CF][CF][CF] [CF] [A,FA]3 | A,,2 [F,A,]2 A,,2 A,2 | z2 G,4 z2 | %15
 B,,2 F,2 B,2 B,,2 |[M:3/4] E,>C, B,,G,, E,,2 |[M:1/4] z2 | %18
[M:4/4] [A,,A,]2 [E,A,C]2 [E,,E,]2 [E,G,B,_D]2 | A,4 z4 | _D,2 [D,A,]2 [F,=A,]2 [F,A,]2 | z4 B,4 | %22
 [E,G,_D]2 [E,G,D]2 [E,B,D]2 [E,G,D]2 | z z/ =B,/ C4- [E,A,C]2 | B,,2 F,2 B,,2 F,2 | %25
 z2 [E,G,]2 z4 | [A,,A,]2 [E,A,]2 [E,,E,]2 [E,G,_D]2 | C4- CC z z/ E/ | A,,2 E,2 E,2 A,2 | %29
 _D,2 F,A, D,2 z z/ G/ | _D,2 A,2 _D2 A,2 | z4 z2 G,2 | E,,2 E,2 G,2 E,2 | %33
[M:3/4] z z/ F,/ E,C, A,,2 |[M:1/4] z2 |[M:4/4] z [B,,F,][B,,F,][B,,G,] [B,,A,]2 z2 | %36
 z [E,G,][E,G,][E,A,] [E,B,]2 [E,G,E]2 | z2 B,2 [A,F]2 G,2 |[M:11/16] G,F,G,G,F,3/2 |[M:3/8] z3 | %40
[M:4/4][K:treble] [EG][EG][EG][EG] [E_G][EG][EG][EG] | [EG][EG][EG][EG] [EG][B,EG][CE_G][DF] | %42
 [EG][EG][EG][EG] [C=E][CE][CE][CE] | [CF][CF][CF][CF] [CF]DDD | B,,F,B,F, B,,F,B,F, | %45
 B,,F,B,F, z[K:treble] D z A | z4 B,4- | B,[K:treble] z z2 z4 | %48
 [EG][EG][EG][EG] [E_G][EG][EG][EG] | [EG][EG][EG][EG] [EG][B,EG][CE_G][DF] | %50
 GG z G [=EG][EG][CE][CE] | [CF][CF][CF][CF] [CF] [A,FA]3 | A,,2 [F,A,]2 A,,2 A,2 | z2 G,4 z2 | %54
 B,,2 F,2 B,2 B,,2 |[M:7/4] E,>C,B,,G,, E,,2 z2 z2 z4 |] %56
V:3
 x8 | G,2 B,2 =A,2 C2 | B,6 z2 | z2 B,2 A,2 G,2 | F,6 z2 | x8 | z4 B,,2[K:treble] B,2 | %7
 B,,2 B,2 z B,,C,D, | z[K:treble] E3- E z z2 | G,2 B,2 =A,2 C2 | B,6 z2 | E2 D2 C2 G,2 | A,6 z2 | %13
 x8 | B,,2 B,,2- B,,-[B,,-B,][B,,-=A,][B,,B,] | x8 |[M:3/4] x6 |[M:1/4] x2 |[M:4/4] x8 | %19
 C4- C>A,, B,,>C, | x8 | B,,>C, _D,>F, z2 z z/ _D/ | x8 | A,,2 [E,A,]2 z4 | x8 | %25
 [E,,E,]2 _D2- [E,B,D]2 [E,G,]2 | x8 | A,4 z2 A,,2 | x8 | z4 z2 _D,2 | x8 | A,,2 E,2 A,2 z z/ E/ | %32
 x8 |[M:3/4] A,,4 z2 |[M:1/4] x2 |[M:4/4] x8 | x8 | E,4 E,4 | %38
[M:11/16] B,,/-B,,/-B,,/-B,,/-B,,/-B,,/-B,,/-B,,-<B,, |[M:3/8] x3 | %40
[M:4/4][K:treble] G,2 B,2 =A,2 C2 | B,6 z2 | z2 B,2 A,2 G,2 | F,6 z2 | x8 | z4 B,,2[K:treble] B,2 | %46
 B,,2 B,2 z B,,C,D, | z[K:treble] E3- E z z2 | G,2 B,2 =A,2 C2 | B,6 z2 | E2 D2 C2 G,2 | A,6 z2 | %52
 x8 | B,,2 B,,2- B,,-[B,,-B,][B,,-=A,][B,,B,] | x8 |[M:7/4] x14 |] %56
V:4
 x8 | x8 | x8 | x8 | x8 | x8 | x8 | x8 | G2- [DG-][CG-] [B,G][K:bass]B,,E,F, | x8 | x8 | x8 | x8 | %13
 x8 | x8 | x8 |[M:3/4] z2 z2[K:bass] E,2 |[M:1/4] x2 |[M:4/4][K:treble] z z/ E/ D>F E2 B2 | %19
 z z/[K:bass] A,,/ C,>E, z z/[K:treble] [CA]/ [_DG]>[E_G] | x8 | x8 | x8 | %23
 z2 E4[K:bass][K:treble] z2 | x8 | x8 | z z/ E/ D>F E2 B2 | %27
 z z/[K:bass] A,,/ C,>E, z[K:treble] A [_DB]>c | z2 [A,C]2 [A,C]2 [C_GA]2 | z4 _D2 [DFA]2 | x8 | %31
 x8 | x8 |[M:3/4] A,2 z2 z2 |[M:1/4] x2 |[M:4/4] z DDE F2 B>B | z B,EF G2 B2 | [CA]2 G2 z2 E2 | %38
[M:11/16] EDFED3/2 |[M:3/8][K:bass] x3 |[M:4/4][K:treble] x8 | x8 | x8 | x8 | x8 | x8 | x8 | %47
 .E2 DC[K:bass] B,B,,E,F, | x8 | x8 | x8 | x8 | x8 | x8 | x8 |[M:7/4][K:bass] z4 E,2 z2 z2 z4 |] %56
V:5
 x8 | x8 | x8 | x8 | x8 | x8 | x5[K:treble] x3 | x8 | E,6[K:treble] z2 | x8 | x8 | x8 | x8 | x8 | %14
 x8 | x8 |[M:3/4] x6 |[M:1/4] x2 |[M:4/4] x8 | x8 | x8 | z4 z2 B,,2 | x8 | x8 | x8 | x8 | x8 | x8 | %28
 x8 | x8 | x8 | x8 | x8 |[M:3/4] x6 |[M:1/4] x2 |[M:4/4] x8 | x8 | x8 |[M:11/16] x11/2 | %39
[M:3/8] x3 |[M:4/4][K:treble] x8 | x8 | x8 | x8 | x8 | x5[K:treble] x3 | x8 | E,6[K:treble] z2 | %48
 x8 | x8 | x8 | x8 | x8 | x8 | x8 |[M:7/4] x14 |] %56
V:6
 x8 | x8 | x8 | x8 | x8 | x8 | x8 | x8 | x5[K:bass] x3 | x8 | x8 | x8 | x8 | x8 | x8 | x8 | %16
[M:3/4] x4[K:bass] x2 |[M:1/4] x2 |[M:4/4][K:treble] x8 | z4[K:bass] A,4[K:treble] | x8 | x8 | x8 | %23
 z4[K:bass] A,,2[K:treble] z2 | x8 | x8 | x8 | z4[K:bass] A,2[K:treble] z2 | x8 | x8 | x8 | x8 | %32
 x8 |[M:3/4] x6 |[M:1/4] x2 |[M:4/4] x8 | x8 | x8 |[M:11/16] x11/2 |[M:3/8][K:bass] x3 | %40
[M:4/4][K:treble] x8 | x8 | x8 | x8 | x8 | x8 | x8 | x4[K:bass] x4 | x8 | x8 | x8 | x8 | x8 | x8 | %54
 x8 |[M:7/4][K:bass] x14 |] %56

